X: 6711
T: Ceol Sa Chistin
R: reel
M: 4/4
K: Cmajor
|:EFG|Addc ABcA|GECE DCA,G,|A,2 (3DDD DEFG|AcdA cAGc|
Addc ABcA|GECE DCA,G,|A,2 (3DDD DEFG|AFGE D:|
|:EFG|Adde fdec Ac (3ccc GcEc|Adde fded|cAGc Adde|
fgag fded|cAGE DCA,G,|A,2 (3DDD DEFG|AFGE D:|

